icons/ArrowUpLeft.svg

<svg width="24" height="24" viewBox="0 0 24 24" fill="none" xmlns="http://www.w3.org/2000/svg">
<path fill-rule="evenodd" clip-rule="evenodd" d="M4.27776,5.02777c0,-0.41421 0.33578,-0.75 0.75,-0.75h11.31374c0.4142,0.00001 0.75,0.33579 0.75,0.75001c0,0.41421 -0.3358,0.74999 -0.75,0.75l-9.50308,-0.00001l11.91898,11.91903c0.2929,0.2929 0.2929,0.7677 0,1.0606c-0.2929,0.2929 -0.7678,0.2929 -1.0606,0l-11.91904,-11.91896v9.50306c0,0.4142 -0.33579,0.75 -0.75,0.75c-0.41422,0 -0.75,-0.3358 -0.75,-0.75z" fill="#002B51"/>
</svg>

<svg width="24" height="24" viewBox="0 0 24 24" fill="none" xmlns="http://www.w3.org/2000/svg">
<path fill-rule="evenodd" clip-rule="evenodd" d="M4.27776 5.02777C4.27776 4.61356 4.61354 4.27777 5.02776 4.27777H16.3415C16.7557 4.27778 17.0915 4.61356 17.0915 5.02778C17.0915 5.44199 16.7557 5.77777 16.3415 5.77778L6.83842 5.77777L18.7574 17.6968C19.0503 17.9897 19.0503 18.4645 18.7574 18.7574C18.4645 19.0503 17.9896 19.0503 17.6968 18.7574L5.77776 6.83844V16.3415C5.77776 16.7557 5.44197 17.0915 5.02776 17.0915C4.61354 17.0915 4.27776 16.7557 4.27776 16.3415V5.02777Z" fill="#002B51"/>
</svg>
